assets/images/music.svg

<?xml version="1.0" standalone="no"?>
<!DOCTYPE svg PUBLIC "-//W3C//DTD SVG 1.0//EN" "http://www.w3.org/TR/2001/REC-SVG-20010904/DTD/svg10.dtd">
<svg xmlns="http://www.w3.org/2000/svg" xmlns:xlink="http://www.w3.org/1999/xlink" id="body_1" width="24" height="32">

<g transform="matrix(0.9901398 0 0 1.015873 0 0)">
    <path transform="matrix(1 0 0 1 -5.906 -2.953)"  d="M29.4 2.968C 29.043999 3.036 14.099999 5.936 13.785999 5.9969997C 13.461782 6.023694 13.203416 6.2791095 13.172999 6.6029997L13.172999 6.6029997L13.172999 24.784C 13.177765 25.089083 13.115643 25.391504 12.990999 25.67C 12.729249 26.140427 12.290383 26.486767 11.771999 26.632C 11.521999 26.715 11.181 26.791 10.78 26.882C 8.955 27.291 5.904 27.987999 5.904 30.804C 5.825184 32.655212 7.2162933 34.241024 9.062 34.404C 9.239796 34.43479 9.419615 34.452507 9.6 34.457C 10.949397 34.407654 12.272082 34.066494 13.477 33.457C 14.684393 32.65828 15.378127 31.279562 15.3 29.834L15.3 29.834L15.3 13.743C 15.298981 13.45517 15.502502 13.207167 15.785 13.152L15.785 13.152L27.3 10.828C 27.477844 10.791384 27.662735 10.836583 27.803629 10.951121C 27.944525 11.065659 28.026525 11.237423 28.026999 11.419L28.026999 11.419L28.026999 21.331C 28.046535 21.679607 27.981703 22.027786 27.838 22.345999C 27.574919 22.818546 27.132671 23.165281 26.611 23.307999C 26.361 23.390999 25.945 23.467 25.543 23.557999C 23.717999 23.967 20.667 24.657999 20.667 27.473C 20.560427 29.34699 21.96211 30.966566 23.832 31.13C 24.322636 31.165144 24.81571 31.142319 25.301 31.061998C 26.271488 30.893196 27.206171 30.560444 28.065 30.078C 29.395174 29.354757 30.201542 27.941093 30.147001 26.428L30.147001 26.428L30.147001 3.551C 30.147398 3.3657453 30.062197 3.1906948 29.916155 3.0767157C 29.770113 2.9627366 29.579609 2.9226115 29.4 2.968z" stroke="none" fill="#CACACA" fill-rule="nonzero" />
</g>
</svg>

<svg xmlns="http://www.w3.org/2000/svg" width="86.729" height="89.218" viewBox="0 0 86.729 89.218"><g transform="translate(0.72 0.748)"><path d="M29.4,2.968c-.356.068-15.3,2.968-15.614,3.029a.671.671,0,0,0-.613.606V24.784a2.089,2.089,0,0,1-.182.886,2.018,2.018,0,0,1-1.219.962c-.25.083-.591.159-.992.25-1.825.409-4.876,1.106-4.876,3.922a3.466,3.466,0,0,0,3.158,3.6,3.692,3.692,0,0,0,.538.053h0a9.346,9.346,0,0,0,3.877-1A4.08,4.08,0,0,0,15.3,29.834V13.743a.6.6,0,0,1,.485-.591L27.3,10.828a.605.605,0,0,1,.727.591v9.912a2.171,2.171,0,0,1-.189,1.015,2.012,2.012,0,0,1-1.227.962c-.25.083-.666.159-1.068.25-1.825.409-4.876,1.1-4.876,3.915a3.473,3.473,0,0,0,3.165,3.657,6.258,6.258,0,0,0,1.469-.068,8.681,8.681,0,0,0,2.764-.984,3.991,3.991,0,0,0,2.082-3.65V3.551A.6.6,0,0,0,29.4,2.968Z" transform="translate(24.594 24.547)" fill="#cacaca"/><path d="M60,46.66V19.993a6.667,6.667,0,0,0-3.333-5.767L33.333.893a6.667,6.667,0,0,0-6.667,0L3.333,14.226A6.667,6.667,0,0,0,0,19.993V46.66a6.667,6.667,0,0,0,3.333,5.767L26.667,65.76a6.667,6.667,0,0,0,6.667,0L56.667,52.427A6.667,6.667,0,0,0,60,46.66Z" transform="translate(33.327) rotate(30)" fill="none" stroke="#41b883" stroke-linecap="round" stroke-linejoin="round" stroke-width="1"/></g></svg>
